src/lib/packages/icons/src/assets/filled/user-star.svg

<svg width="24" height="24" viewBox="0 0 24 24" fill="none" xmlns="http://www.w3.org/2000/svg">
<path d="M6.00903 6.5C6.00903 4.294 7.80303 2.5 10.009 2.5C12.215 2.5 14.009 4.294 14.009 6.5C14.009 8.706 12.215 10.5 10.009 10.5C7.80303 10.5 6.00903 8.706 6.00903 6.5ZM13.1 18.8199C12.56 18.3099 12.36 17.55 12.59 16.84C12.82 16.12 13.43 15.61 14.17 15.51L15.42 15.33C15.42 15.33 15.6201 15.3109 15.6801 15.1899L16.08 14.39C16.08 14.39 16.13 14.31 16.12 14.2C16.11 14.16 16.09 14.1 16.04 14.05C15.17 13.12 13.86 12.5 12 12.5H8C3.94 12.5 2.5 15.47 2.5 18.02C2.5 20.3 3.71 21.5 6 21.5H13.59C13.75 21.5 13.852 21.38 13.9 21.12L14.1 19.97C14.12 19.87 14.09 19.77 14.01 19.7L13.1 18.8199ZM21.8669 17.739C22.1319 17.487 21.986 17.046 21.621 16.994L19.629 16.7111C19.484 16.6901 19.3579 16.601 19.2939 16.472L18.431 14.76C18.256 14.413 17.751 14.413 17.576 14.76L16.713 16.472C16.648 16.601 16.5231 16.6901 16.3781 16.7111L14.386 16.994C14.021 17.046 13.875 17.487 14.14 17.739L15.58 19.113C15.685 19.213 15.733 19.358 15.708 19.5L15.379 21.379C15.312 21.761 15.721 22.053 16.071 21.873L17.798 20.985C17.928 20.918 18.082 20.918 18.212 20.985L19.9399 21.874C20.2889 22.054 20.697 21.763 20.631 21.381L20.301 19.5C20.276 19.358 20.324 19.213 20.429 19.113L21.8669 17.739Z" fill="currentColor"/>
</svg>

<svg xmlns="http://www.w3.org/2000/svg" width="24" height="24" fill="none"><path fill="currentColor" d="M6.009 6.5c0-2.206 1.794-4 4-4s4 1.794 4 4-1.794 4-4 4-4-1.794-4-4ZM13.1 18.82a1.9 1.9 0 0 1-.51-1.98c.23-.72.84-1.23 1.58-1.33l1.25-.18s.2-.02.26-.14l.4-.8s.05-.08.04-.19a.316.316 0 0 0-.08-.15c-.87-.93-2.18-1.55-4.04-1.55H8c-4.06 0-5.5 2.97-5.5 5.52 0 2.28 1.21 3.48 3.5 3.48h7.59c.16 0 .262-.12.31-.38l.2-1.15c.02-.1-.01-.2-.09-.27l-.91-.88Zm8.767-1.081a.434.434 0 0 0-.246-.745l-1.992-.283a.444.444 0 0 1-.335-.239l-.863-1.712a.481.481 0 0 0-.855 0l-.863 1.712a.445.445 0 0 1-.335.24l-1.992.282a.434.434 0 0 0-.246.745l1.44 1.374c.105.1.153.245.128.387l-.329 1.879c-.067.382.342.674.692.494l1.727-.888a.451.451 0 0 1 .414 0l1.728.889c.349.18.757-.111.691-.493l-.33-1.881a.431.431 0 0 1 .128-.387l1.438-1.374Z"/></svg>
